svgs/duotone/outlet.svg

<svg xmlns="http://www.w3.org/2000/svg" viewBox="0 0 448 512"><!-- Font Awesome Pro 6.0.0-alpha2 by @fontawesome - https://fontawesome.com License - https://fontawesome.com/license (Commercial License) --><defs><style>.fa-secondary{opacity:.4}</style></defs><path d="M224 288C210.781 288 200 298.781 200 312V336H248V312C248 298.781 237.219 288 224 288ZM160 192C151.164 192 144 199.164 144 208V256C144 264.836 151.164 272 160 272C168.838 272 176 264.836 176 256V208C176 199.164 168.838 192 160 192ZM288 192C279.164 192 272 199.164 272 208V256C272 264.836 279.164 272 288 272C296.838 272 304 264.836 304 256V208C304 199.164 296.838 192 288 192ZM332.543 378.596C328.896 382.096 324 383.996 318.896 383.996H129.105C124 383.996 119.105 382.096 115.459 378.596C83.793 347.396 64 304.098 64 256C64 207.9 83.793 164.602 115.459 133.404C119.105 129.904 124 127.904 129.105 128.004H318.896C324 127.904 328.896 129.904 332.543 133.404C364.209 164.602 384 207.9 384 256C384 304.098 364.209 347.396 332.543 378.596Z" class="fa-secondary"/><path d="M384 32H64C28.654 32 0 60.654 0 96V416C0 451.346 28.654 480 64 480H384C419.348 480 448 451.346 448 416V96C448 60.654 419.348 32 384 32ZM332.543 378.596C328.896 382.096 324 383.996 318.896 383.996H129.105C124 383.996 119.105 382.096 115.459 378.596C83.793 347.396 64 304.098 64 256C64 207.9 83.793 164.602 115.459 133.404C119.105 129.904 124 127.904 129.105 128.004H318.896C324 127.904 328.896 129.904 332.543 133.404C364.209 164.602 384 207.9 384 256C384 304.098 364.209 347.396 332.543 378.596Z" class="fa-primary"/></svg>

<svg xmlns="http://www.w3.org/2000/svg" viewBox="0 0 448 512"><!--! Font Awesome Pro 6.3.0 by @fontawesome - https://fontawesome.com License - https://fontawesome.com/license (Commercial License) Copyright 2023 Fonticons, Inc. --><defs><style>.fa-secondary{opacity:.4}</style></defs><path class="fa-primary" d="M384 31.1H64c-35.35 0-64 28.65-64 63.1v320c0 35.35 28.65 64 64 64h320c35.35 0 64-28.65 64-64v-320C448 60.65 419.3 31.1 384 31.1zM332.5 378.6c-3.646 3.5-8.543 5.4-13.65 5.4H129.1c-5.105 0-10-1.9-13.65-5.4C83.79 347.4 64 304.1 64 255.1c0-48.1 19.79-91.4 51.46-122.6C119.1 129.9 124 127.9 129.1 128h189.8c5.104-.0996 10 1.9 13.65 5.4C364.2 164.6 384 207.9 384 255.1C384 304.1 364.2 347.4 332.5 378.6z"/><path class="fa-secondary" d="M224 288C210.8 288 200 298.8 200 312v24h48V312C248 298.8 237.2 288 224 288zM160 192C151.2 192 144 199.2 144 208V256c0 8.836 7.164 16 16 16c8.838 0 16-7.164 16-16V208C176 199.2 168.8 192 160 192zM288 192c-8.836 0-16 7.164-16 16V256c0 8.836 7.164 16 16 16c8.838 0 16-7.164 16-16V208C304 199.2 296.8 192 288 192zM332.5 378.6c-3.646 3.5-8.543 5.4-13.65 5.4H129.1c-5.105 0-10-1.9-13.65-5.4C83.79 347.4 64 304.1 64 255.1c0-48.1 19.79-91.4 51.46-122.6C119.1 129.9 124 127.9 129.1 128h189.8c5.104-.0996 10 1.9 13.65 5.4C364.2 164.6 384 207.9 384 255.1C384 304.1 364.2 347.4 332.5 378.6z"/></svg>
